mobile/apps/auth/assets/custom-icons/icons/kotas.svg

<svg xmlns="http://www.w3.org/2000/svg" viewBox="0 0 500 500"><path fill="#fff" d="M105.08.61C90.5 2.16 71.47 8.21 57.3 15.82 28.49 31.36 10.26 55.31 3.69 86.29.94 99.26 1 94.06 1 249.17c0 137.57.06 146.43 1.03 152.61 3.37 21.83 11.32 40.69 23.43 55.72 4.86 6.06 15.03 15.77 20.81 19.89 18.97 13.54 42.63 21.6 65.89 22.52 27.32 1.08 53.44-8.29 76.13-27.38 6-5.03 33.72-32.29 45.61-44.81 7.55-7.94 10.23-9.66 15.43-9.6 5.89 0 9.55 2.74 20.29 15.03 8.58 9.78 36.92 36.92 44.47 42.52 10.4 7.78 18.57 12.35 29.83 16.69 44.87 17.26 94.76 4.69 126.31-31.89 34.24-39.61 37.67-95.56 8.57-139.57-6.62-10.11-12.28-16.34-37.32-41.32-16.91-16.86-23.89-24.23-24.69-26-2.74-6.01-1.83-7.38 18.64-27.44 21.2-20.8 37.77-38.23 42.12-44.29 10.63-14.86 16.8-29.38 19.66-46.18 1.43-8.63 1.43-27.15-.06-35.95-5.77-35.49-21.95-61.67-49.15-79.79C428.68 7.07 407.19.61 383.82.56c-27.55 0-51.16 8.28-72.48 25.54-5.77 4.69-34.57 32.87-47.78 46.81-7.2 7.6-9.54 9.26-13.71 9.78-1.66.22-2.97-.06-5.37-1.2-2.52-1.26-5.09-3.66-13.38-12.52-18.92-20.29-37.95-38.41-48.35-46.12C158.74 5.19 132.74-2.3 105.08.61Zm292.11 48.76a70.193 70.193 0 0 1 23.6 9.77c6.06 3.89 16.64 14.74 20.47 21.03 12.17 19.66 13.65 42.52 4.05 62.7-5.14 10.8-6.11 11.94-47.72 54.01-40.64 41.09-81.79 82.13-107.73 107.45-12.12 11.89-15.49 15.49-16.69 17.94-1.89 3.89-2 7.09-.23 10.23 1.77 3.26 19.72 21.44 22.57 22.92 3.15 1.6 6.98 1.55 10.29-.11 1.66-.8 4.63-3.49 8.35-7.55 3.14-3.48 17.31-17.88 31.49-32.06 17.43-17.43 26.46-26.12 28-26.8 2.8-1.26 6.4-1.26 8.8 0 2.75 1.43 50.58 49.83 54.93 55.61 10.91 14.51 15.94 32.57 13.66 49.03-4.8 34.81-39.61 63.5-72.36 59.79-13.43-1.55-24.29-6.17-36.12-15.43-5.89-4.58-181-179.12-183.52-182.9-2.29-3.42-2.29-6.4-.06-9.88.86-1.37 16.23-17.03 34.12-34.81 20.01-19.83 32.92-33.09 33.55-34.41 2.17-4.57.69-8.34-5.43-13.71-2.23-2-6.63-5.95-9.71-8.75-12.86-11.77-13.78-12.29-17.49-10.29-2.4 1.26-89.22 88.65-92.59 93.17-5.77 7.77-6.86 14.17-3.6 21.2.97 2.11 3.26 5.66 5.09 7.89 1.77 2.23 26.34 27.14 54.58 55.38 31.09 31.15 51.72 52.24 52.41 53.55 1.48 2.92 1.48 6.86-.06 9.89-.69 1.37-3.83 4.86-7.32 8.06-3.31 3.14-14.91 14.63-25.77 25.55-21.26 21.43-25.55 25.03-35.15 29.72-14.46 7.03-29.72 7.88-45.72 2.57-22.29-7.49-39.1-23.04-44.93-41.5-3.26-10.34-3.03 1.03-3.2-155.17-.17-127.34-.06-144.14.69-149.68 2.17-14.92 8.17-26.7 18.63-36.64 9.49-9.03 21.89-15.49 34.06-17.77 7.55-1.38 21.38-.92 28.87 1.08 11.08 2.92 20.23 7.49 28.92 14.46 2.45 1.94 39.26 38.52 81.95 81.27 60.99 61.21 78.13 78.08 80.42 79.22 4.06 2.06 7.94 2 11.77-.17 3.03-1.72 8.18-6.86 14.92-14.92 7.14-8.52 8.23-12.12 5.09-17.49-2-3.43-30.98-33.15-55.96-57.38-11.37-11.03-12.57-14.17-8-20.92 1.09-1.66 3.6-4.34 5.55-6 1.94-1.66 12.91-12.46 24.4-23.95 18.52-18.63 21.55-21.43 27.03-25.03 8.58-5.6 18.41-9.43 28.12-10.97 4.8-.75 18.06-.29 22.98.8Z" style="mix-blend-mode:difference"/></svg>

<svg width="500" height="500" viewBox="0 0 500 500" xmlns="http://www.w3.org/2000/svg">
<g style="mix-blend-mode:difference">
<path d="M105.08 0.61C90.5 2.16 71.47 8.21 57.3 15.82C28.49 31.36 10.26 55.31 3.69 86.29C0.94 99.26 1.00 94.06 1.00 249.17C1.00 386.74 1.06 395.6 2.03 401.78C5.40 423.61 13.35 442.47 25.46 457.5C30.32 463.56 40.49 473.27 46.27 477.39C65.24 490.93 88.90 498.99 112.16 499.91C139.48 500.99 165.60 491.62 188.29 472.53C194.29 467.50 222.01 440.24 233.90 427.72C241.45 419.78 244.13 418.06 249.33 418.12C255.22 418.12 258.88 420.86 269.62 433.15C278.20 442.93 306.54 470.07 314.09 475.67C324.49 483.45 332.66 488.02 343.92 492.36C388.79 509.62 438.68 497.05 470.23 460.47C504.47 420.86 507.90 364.91 478.80 320.90C472.18 310.79 466.52 304.56 441.48 279.58C424.57 262.72 417.59 255.35 416.79 253.58C414.05 247.57 414.96 246.20 435.43 226.14C456.63 205.34 473.20 187.91 477.55 181.85C488.18 166.99 494.35 152.47 497.21 135.67C498.64 127.04 498.64 108.52 497.15 99.72C491.38 64.23 475.20 38.05 448.00 19.93C428.68 7.07 407.19 0.61 383.82 0.56C356.27 0.56 332.66 8.84 311.34 26.10C305.57 30.79 276.77 58.97 263.56 72.91C256.36 80.51 254.02 82.17 249.85 82.69C248.19 82.91 246.88 82.63 244.48 81.49C241.96 80.23 239.39 77.83 231.10 68.97C212.18 48.68 193.15 30.56 182.75 22.85C158.74 5.19 132.74 -2.30 105.08 0.61ZM397.19 49.37C405.71 51.19 413.65 54.51 420.79 59.14C426.85 63.03 437.43 73.88 441.26 80.17C453.43 99.83 454.91 122.69 445.31 142.87C440.17 153.67 439.20 154.81 397.59 196.88C356.95 237.97 315.80 279.01 289.86 304.33C277.74 316.22 274.37 319.82 273.17 322.27C271.28 326.16 271.17 329.36 272.94 332.50C274.71 335.76 292.66 353.94 295.51 355.42C298.66 357.02 302.49 356.97 305.80 355.31C307.46 354.51 310.43 351.82 314.15 347.76C317.29 344.28 331.46 329.88 345.64 315.70C363.07 298.27 372.10 289.58 373.64 288.90C376.44 287.64 380.04 287.64 382.44 288.90C385.19 290.33 433.02 338.73 437.37 344.51C448.28 359.02 453.31 377.08 451.03 393.54C446.23 428.35 411.42 457.04 378.67 453.33C365.24 451.78 354.38 447.16 342.55 437.90C336.66 433.32 161.55 258.78 159.03 255.00C156.74 251.58 156.74 248.60 158.97 245.12C159.83 243.75 175.20 228.09 193.09 210.31C213.10 190.48 226.01 177.22 226.64 175.90C228.81 171.33 227.33 167.56 221.21 162.19C218.98 160.19 214.58 156.24 211.50 153.44C198.64 141.67 197.72 141.15 194.01 143.15C191.61 144.41 104.79 231.80 101.42 236.32C95.65 244.09 94.56 250.49 97.82 257.52C98.79 259.63 101.08 263.18 102.91 265.41C104.68 267.64 129.25 292.55 157.49 320.79C188.58 351.94 209.21 373.03 209.90 374.34C211.38 377.26 211.38 381.20 209.84 384.23C209.15 385.60 206.01 389.09 202.52 392.29C199.21 395.43 187.61 406.92 176.75 417.84C155.49 439.27 151.20 442.87 141.60 447.56C127.14 454.59 111.88 455.44 95.88 450.13C73.59 442.64 56.78 427.09 50.95 408.63C47.69 398.29 47.92 409.66 47.75 253.46C47.58 126.12 47.69 109.32 48.44 103.78C50.61 88.86 56.61 77.08 67.07 67.14C76.56 58.11 88.96 51.65 101.13 49.37C108.68 47.99 122.51 48.45 130.00 50.45C141.08 53.37 150.23 57.94 158.92 64.91C161.37 66.85 198.18 103.43 240.87 146.18C301.86 207.39 319.00 224.26 321.29 225.40C325.35 227.46 329.23 227.40 333.06 225.23C336.09 223.51 341.24 218.37 347.98 210.31C355.12 201.79 356.21 198.19 353.07 192.82C351.07 189.39 322.09 159.67 297.11 135.44C285.74 124.41 284.54 121.27 289.11 114.52C290.20 112.86 292.71 110.18 294.66 108.52C296.60 106.86 307.57 96.06 319.06 84.57C337.58 65.94 340.61 63.14 346.09 59.54C354.67 53.94 364.50 50.11 374.21 48.57C379.01 47.82 392.27 48.28 397.19 49.37Z" fill="white"/>
</g>
</svg>
